X:359
T:Le saut de la Piga
C:trad.
A:Gascogne
O:France
Z:S. Piron
M:6/8
L:1/8
Q:1/4=180
K:G
GFG A2A|ABc d3|dcde2d|1cBA B2 G:|2cBA G3|
|:ded A3|ded A3|c2cB2B|1AGA B2G:|2ABA G3:|
